Site26/img/svg/inst-logo.svg

<svg width="18" height="18" viewBox="0 0 18 18" fill="none" xmlns="http://www.w3.org/2000/svg">
<path d="M13.1275 0H4.87243C2.18573 0 0 2.18573 0 4.87243V13.1277C0 15.8142 2.18573 18 4.87243 18H13.1277C15.8142 18 18 15.8142 18 13.1277V4.87243C18 2.18573 15.8142 0 13.1275 0V0ZM16.9447 13.1277C16.9447 15.2324 15.2324 16.9447 13.1275 16.9447H4.87243C2.76759 16.9447 1.05523 15.2324 1.05523 13.1277V4.87243C1.05523 2.76759 2.76759 1.05523 4.87243 1.05523H13.1277C15.2324 1.05523 16.9447 2.76759 16.9447 4.87243V13.1277Z" fill="black"/>
<path d="M8.99985 4.07812C6.28596 4.07812 4.07812 6.28596 4.07812 8.99985C4.07812 11.7137 6.28596 13.9216 8.99985 13.9216C11.7137 13.9216 13.9216 11.7137 13.9216 8.99985C13.9216 6.28596 11.7137 4.07812 8.99985 4.07812ZM8.99985 12.8663C6.86796 12.8663 5.13336 11.1319 5.13336 8.99985C5.13336 6.86796 6.86796 5.13336 8.99985 5.13336C11.1319 5.13336 12.8663 6.86796 12.8663 8.99985C12.8663 11.1319 11.1319 12.8663 8.99985 12.8663Z" fill="black"/>
<path d="M14.0393 2.33057C13.2373 2.33057 12.585 2.98302 12.585 3.78488C12.585 4.58688 13.2373 5.23933 14.0393 5.23933C14.8413 5.23933 15.4937 4.58688 15.4937 3.78488C15.4937 2.98288 14.8413 2.33057 14.0393 2.33057ZM14.0393 4.18396C13.8193 4.18396 13.6402 4.00488 13.6402 3.78488C13.6402 3.56474 13.8193 3.3858 14.0393 3.3858C14.2594 3.3858 14.4385 3.56474 14.4385 3.78488C14.4385 4.00488 14.2594 4.18396 14.0393 4.18396Z" fill="black"/>
</svg>

<svg width="18" height="18" fill="none" xmlns="http://www.w3.org/2000/svg">
  <path d="M13.1275 0h-8.255C2.1856 0 0 2.1857 0 4.8724v8.2553C0 15.8142 2.1857 18 4.8724 18h8.2553C15.8142 18 18 15.8142 18 13.1277V4.8724C18 2.1857 15.8142 0 13.1275 0Zm3.8172 13.1277c0 2.1047-1.7123 3.817-3.8172 3.817h-8.255c-2.105 0-3.8173-1.7123-3.8173-3.817V4.8724c0-2.1048 1.7124-3.8172 3.8172-3.8172h8.2553c2.1047 0 3.817 1.7124 3.817 3.8172v8.2553Z" fill="#000"/>
  <path d="M8.9999 4.0781C6.2858 4.0781 4.078 6.286 4.078 9c0 2.7138 2.2079 4.9217 4.9218 4.9217 2.7138 0 4.9217-2.2079 4.9217-4.9217 0-2.714-2.2079-4.9218-4.9217-4.9218Zm0 8.7882c-2.132 0-3.8665-1.7344-3.8665-3.8665 0-2.1318 1.7346-3.8664 3.8665-3.8664 2.132 0 3.8664 1.7346 3.8664 3.8665 0 2.132-1.7344 3.8664-3.8665 3.8664ZM14.0393 2.3306c-.802 0-1.4543.6524-1.4543 1.4543 0 .802.6523 1.4544 1.4543 1.4544.802 0 1.4544-.6524 1.4544-1.4544 0-.802-.6524-1.4543-1.4544-1.4543Zm0 1.8534a.3996.3996 0 0 1-.3991-.3991c0-.2202.1791-.3991.3991-.3991.2201 0 .3992.179.3992.399 0 .22-.1791.3992-.3992.3992Z" fill="#000"/>
</svg>
